static/img/camera/cable-vionyx-alarmin-relay.svg

<svg width="420" height="67" viewBox="0 0 420 67" fill="none" xmlns="http://www.w3.org/2000/svg">
<rect width="420" height="67" fill="white"/>
<path d="M32.3101 44.18C37.1901 40.64 43.1801 39.01 49.0801 37.79C59.8601 35.56 70.8801 34.5 81.8901 34.62" fill="white"/>
<path d="M32.3101 44.18C37.1901 40.64 43.1801 39.01 49.0801 37.79C59.8601 35.56 70.8801 34.5 81.8901 34.62" stroke="black" stroke-width="0.2" stroke-miterlimit="10"/>
<path d="M32.81 45.0501C39.39 40.3701 47.73 38.8901 55.55 37.6101C64.25 36.1801 73.07 35.5401 81.88 35.6301C83.17 35.6401 83.17 33.6401 81.88 33.6301C72.88 33.5401 63.89 34.2301 55.01 35.6801C47.03 36.9901 38.52 38.5401 31.79 43.3201C30.75 44.0601 31.75 45.7901 32.8 45.0501H32.81Z" fill="white" stroke="black" stroke-width="0.2" stroke-miterlimit="10"/>
<path d="M32.6701 40.0001C50.2001 35.2401 68.2401 30.9001 86.5401 32.4901C87.8201 32.6001 87.8101 30.6001 86.5401 30.4901C68.0801 28.8901 49.8201 33.2701 32.1301 38.0701C30.8901 38.4101 31.4201 40.3401 32.6601 40.0001H32.6701Z" fill="#0068B7"/>
<path d="M32.4099 34.01C41.5899 34.29 50.6599 32.73 59.8199 32.53C69.2199 32.32 78.6099 32.92 87.9499 33.84C89.2299 33.97 89.2199 31.97 87.9499 31.84C78.5999 30.92 69.2099 30.32 59.8199 30.53C50.6499 30.73 41.5799 32.29 32.4099 32.01C31.1199 31.97 31.1199 33.97 32.4099 34.01Z" fill="#F08300"/>
<path d="M32.4301 28.42C36.6001 29.78 40.9801 30.22 45.3201 30.66C49.9601 31.14 54.6101 31.62 59.2501 32.1C68.8201 33.09 78.3801 34.06 87.9601 34.99C89.2401 35.11 89.2301 33.11 87.9601 32.99C78.5501 32.08 69.1501 31.12 59.7501 30.15C55.2601 29.69 50.7601 29.22 46.2701 28.76C41.7801 28.3 37.2801 27.89 32.9601 26.49C31.7301 26.09 31.2101 28.02 32.4301 28.42Z" fill="#231815"/>
<path d="M32.4298 23.03C40.5498 26.43 49.0098 28.29 57.5998 30.06C66.1898 31.83 74.7698 34.04 83.5298 33.84C84.8198 33.81 84.8198 31.81 83.5298 31.84C74.7898 32.03 66.1698 29.78 57.6598 28.03C49.1498 26.28 40.9298 24.43 32.9598 21.1C31.7698 20.6 31.2598 22.54 32.4298 23.03Z" fill="#601986"/>
<path d="M20 46.35H30.57V48.11H32.41V18H30.57V19.76H20V46.35Z" fill="white"/>
<path d="M21.7598 20.01V21.69H23.5198V23.45H21.7598V25.21V26.98H23.5198V28.81H21.7598V30.57V32.26H23.5198V34.02H21.7598V35.78V37.62H23.5198V39.38H21.7598V41.07V42.9H23.5198V44.6H21.7598V46.35" stroke="black" stroke-width="0.25" stroke-linecap="round" stroke-linejoin="round"/>
<path d="M20 46.35H30.57V48.11H32.41V18H30.57V19.76H20V46.35Z" stroke="black" stroke-width="0.5" stroke-linecap="round" stroke-linejoin="round"/>
<path d="M30.5698 46.35V19.76" stroke="black" stroke-width="0.25" stroke-linecap="round" stroke-linejoin="round"/>
<path d="M28.8099 46.35V45.51H24.4399V41.91H28.8099V41.07V40.22H24.4399V36.62H28.8099V35.78V34.86H24.4399V31.42H28.8099V30.57V29.66H24.4399V26.06H28.8099V25.21V24.37H24.4399V20.85H28.8099V20.01" stroke="black" stroke-width="0.25" stroke-linecap="round" stroke-linejoin="round"/>
<path d="M361.34 44.22C356.46 40.68 350.47 39.05 344.57 37.83C333.79 35.6 322.77 34.54 311.76 34.66" fill="white"/>
<path d="M361.34 44.22C356.46 40.68 350.47 39.05 344.57 37.83C333.79 35.6 322.77 34.54 311.76 34.66" stroke="black" stroke-width="0.2" stroke-miterlimit="10"/>
<path d="M360.84 45.0901C354.26 40.4101 345.92 38.9301 338.1 37.6501C329.4 36.2201 320.58 35.5801 311.77 35.6701C310.48 35.6801 310.48 33.6801 311.77 33.6701C320.77 33.5801 329.76 34.2701 338.64 35.7201C346.62 37.0301 355.13 38.5801 361.86 43.3601C362.9 44.1001 361.9 45.8301 360.85 45.0901H360.84Z" fill="white" stroke="black" stroke-width="0.2" stroke-miterlimit="10"/>
<path d="M361.5 38.1102C349.13 33.7902 335.83 32.4002 322.81 31.8802C317.5 31.6702 312.19 31.6402 306.87 31.7202C305.58 31.7402 305.58 33.7402 306.87 33.7202C322.07 33.4902 337.58 33.9902 352.42 37.5502C355.31 38.2402 358.16 39.0602 360.96 40.0402C362.18 40.4702 362.7 38.5302 361.49 38.1102H361.5Z" fill="#0068B7"/>
<path d="M361.24 32.0502C356.74 32.1902 352.27 31.7202 347.78 31.7402C343.29 31.7602 338.59 31.3602 334 31.2102C324.56 30.8902 315.1 30.9702 305.69 31.8902C304.42 32.0102 304.41 34.0202 305.69 33.8902C315.1 32.9702 324.56 32.8902 334 33.2102C338.59 33.3702 343.18 33.7602 347.78 33.7402C352.38 33.7202 356.74 34.1902 361.24 34.0502C362.52 34.0102 362.53 32.0102 361.24 32.0502Z" fill="#F08300"/>
<path d="M360.69 26.5403C356.38 27.9403 351.87 28.3503 347.38 28.8103C342.89 29.2703 338.39 29.7403 333.9 30.2003C324.5 31.1703 315.1 32.1303 305.69 33.0403C304.42 33.1603 304.41 35.1603 305.69 35.0403C315.26 34.1103 324.83 33.1303 334.4 32.1503C339.04 31.6703 343.69 31.1903 348.33 30.7103C352.68 30.2603 357.05 29.8203 361.22 28.4703C362.44 28.0703 361.92 26.1403 360.69 26.5403Z" fill="#231815"/>
<path d="M360.69 21.1402C352.72 24.4802 344.42 26.3402 335.99 28.0702C327.56 29.8002 318.86 32.0702 310.12 31.8802C308.83 31.8502 308.83 33.8502 310.12 33.8802C318.88 34.0802 327.53 31.8502 336.05 30.1002C344.64 28.3302 353.1 26.4702 361.22 23.0702C362.39 22.5802 361.88 20.6402 360.69 21.1402Z" fill="#601986"/>
<path d="M360.63 45.9502L393.19 45.9502V20.4502L360.63 20.4502V45.9502Z" fill="white" stroke="black" stroke-width="0.5" stroke-miterlimit="10"/>
<path d="M377.34 24.4402L393.19 24.4402V20.4502H377.34V24.4402Z" fill="white" stroke="black" stroke-width="0.5" stroke-miterlimit="10"/>
<path d="M377.34 45.9602H393.19V41.9702H377.34V45.9602Z" fill="white" stroke="black" stroke-width="0.5" stroke-miterlimit="10"/>
<path d="M382.03 37.3502H387.18V39.4802H393.19V37.3502V29.0502V26.9202H387.18V29.0502H382.03V37.3502Z" fill="white" stroke="black" stroke-width="0.5" stroke-miterlimit="10"/>
<path d="M393.19 35.4102V39.4802H399.35V26.9202H393.19V30.9902H383.73V35.4102H393.19Z" fill="white" stroke="black" stroke-width="0.5" stroke-miterlimit="10"/>
<path d="M393.19 21.8802V44.5202H397.69V45.9502H399.35V20.4502H397.69V21.8802H393.19Z" stroke="black" stroke-width="0.5" stroke-miterlimit="10"/>
<path d="M310.02 29.5601H67.79V36.5601H310.02V29.5601Z" fill="url(#paint0_linear_1464_26716)"/>
<path d="M328.32 27.9102H310.5V38.2002H328.32V27.9102Z" fill="url(#paint1_linear_1464_26716)"/>
<path d="M310.5 26.4001H292.68V39.7201H310.5V26.4001Z" fill="url(#paint2_linear_1464_26716)"/>
<defs>
<linearGradient id="paint0_linear_1464_26716" x1="188.9" y1="26.9801" x2="188.9" y2="40.6001" gradientUnits="userSpaceOnUse">
<stop stop-color="#231815"/>
<stop offset="0.34" stop-color="#595757"/>
<stop offset="0.67"/>
<stop offset="1" stop-color="#595757"/>
</linearGradient>
<linearGradient id="paint1_linear_1464_26716" x1="319.41" y1="27.2102" x2="319.41" y2="39.2802" gradientUnits="userSpaceOnUse">
<stop stop-color="#231815"/>
<stop offset="0.34" stop-color="#595757"/>
<stop offset="0.67"/>
<stop offset="1" stop-color="#595757"/>
</linearGradient>
<linearGradient id="paint2_linear_1464_26716" x1="301.59" y1="40.9301" x2="301.59" y2="24.9001" gradientUnits="userSpaceOnUse">
<stop stop-color="#231815"/>
<stop offset="0.34" stop-color="#595757"/>
<stop offset="0.67"/>
<stop offset="1" stop-color="#595757"/>
</linearGradient>
</defs>
</svg>

<svg xmlns="http://www.w3.org/2000/svg" width="420" height="67" fill="none" viewBox="0 0 420 67"><path fill="#fff" d="M0 0h420v67H0z"/><path fill="#fff" d="M32.31 44.18c4.88-3.54 10.87-5.17 16.77-6.39a154 154 0 0 1 32.81-3.17"/><path stroke="#000" stroke-miterlimit="10" stroke-width=".2" d="M32.31 44.18c4.88-3.54 10.87-5.17 16.77-6.39a154 154 0 0 1 32.81-3.17"/><path fill="#fff" stroke="#000" stroke-miterlimit="10" stroke-width=".2" d="M32.81 45.05c6.58-4.68 14.92-6.16 22.74-7.44 8.7-1.43 17.52-2.07 26.33-1.98 1.29.01 1.29-1.99 0-2a157 157 0 0 0-26.87 2.05c-7.98 1.31-16.49 2.86-23.22 7.64-1.04.74-.04 2.47 1.01 1.73z"/><path fill="#0068b7" d="M32.67 40c17.53-4.76 35.57-9.1 53.87-7.51 1.28.11 1.27-1.89 0-2-18.46-1.6-36.72 2.78-54.41 7.58-1.24.34-.71 2.27.53 1.93z"/><path fill="#f08300" d="M32.41 34.01c9.18.28 18.25-1.28 27.41-1.48 9.4-.21 18.79.39 28.13 1.31 1.28.13 1.27-1.87 0-2-9.35-.92-18.74-1.52-28.13-1.31-9.17.2-18.24 1.76-27.41 1.48-1.29-.04-1.29 1.96 0 2"/><path fill="#231815" d="M32.43 28.42c4.17 1.36 8.55 1.8 12.89 2.24l13.93 1.44c9.57.99 19.13 1.96 28.71 2.89 1.28.12 1.27-1.88 0-2-9.41-.91-18.81-1.87-28.21-2.84-4.49-.46-8.99-.93-13.48-1.39s-8.99-.87-13.31-2.27c-1.23-.4-1.75 1.53-.53 1.93"/><path fill="#601986" d="M32.43 23.03c8.12 3.4 16.58 5.26 25.17 7.03s17.17 3.98 25.93 3.78c1.29-.03 1.29-2.03 0-2-8.74.19-17.36-2.06-25.87-3.81s-16.73-3.6-24.7-6.93c-1.19-.5-1.7 1.44-.53 1.93"/><path fill="#fff" d="M20 46.35h10.57v1.76h1.84V18h-1.84v1.76H20z"/><path stroke="#000" stroke-linecap="round" stroke-linejoin="round" stroke-width=".25" d="M21.76 20.01v1.68h1.76v1.76h-1.76v3.53h1.76v1.83h-1.76v3.45h1.76v1.76h-1.76v3.6h1.76v1.76h-1.76v3.52h1.76v1.7h-1.76v1.75"/><path stroke="#000" stroke-linecap="round" stroke-linejoin="round" stroke-width=".5" d="M20 46.35h10.57v1.76h1.84V18h-1.84v1.76H20z"/><path stroke="#000" stroke-linecap="round" stroke-linejoin="round" stroke-width=".25" d="M30.57 46.35V19.76M28.81 46.35v-.84h-4.37v-3.6h4.37v-1.69h-4.37v-3.6h4.37v-1.76h-4.37v-3.44h4.37v-1.76h-4.37v-3.6h4.37v-1.69h-4.37v-3.52h4.37v-.84"/><path fill="#fff" d="M361.34 44.22c-4.88-3.54-10.87-5.17-16.77-6.39a154 154 0 0 0-32.81-3.17"/><path stroke="#000" stroke-miterlimit="10" stroke-width=".2" d="M361.34 44.22c-4.88-3.54-10.87-5.17-16.77-6.39a154 154 0 0 0-32.81-3.17"/><path fill="#fff" stroke="#000" stroke-miterlimit="10" stroke-width=".2" d="M360.84 45.09c-6.58-4.68-14.92-6.16-22.74-7.44-8.7-1.43-17.52-2.07-26.33-1.98-1.29.01-1.29-1.99 0-2 9-.09 17.99.6 26.87 2.05 7.98 1.31 16.49 2.86 23.22 7.64 1.04.74.04 2.47-1.01 1.73z"/><path fill="#0068b7" d="M361.5 38.11c-12.37-4.32-25.67-5.71-38.69-6.23-5.31-.21-10.62-.24-15.94-.16-1.29.02-1.29 2.02 0 2 15.2-.23 30.71.27 45.55 3.83 2.89.69 5.74 1.51 8.54 2.49 1.22.43 1.74-1.51.53-1.93z"/><path fill="#f08300" d="M361.24 32.05c-4.5.14-8.97-.33-13.46-.31s-9.19-.38-13.78-.53c-9.44-.32-18.9-.24-28.31.68-1.27.12-1.28 2.13 0 2 9.41-.92 18.87-1 28.31-.68 4.59.16 9.18.55 13.78.53s8.96.45 13.46.31c1.28-.04 1.29-2.04 0-2"/><path fill="#231815" d="M360.69 26.54c-4.31 1.4-8.82 1.81-13.31 2.27s-8.99.93-13.48 1.39c-9.4.97-18.8 1.93-28.21 2.84-1.27.12-1.28 2.12 0 2 9.57-.93 19.14-1.91 28.71-2.89l13.93-1.44c4.35-.45 8.72-.89 12.89-2.24 1.22-.4.7-2.33-.53-1.93"/><path fill="#601986" d="M360.69 21.14c-7.97 3.34-16.27 5.2-24.7 6.93s-17.13 4-25.87 3.81c-1.29-.03-1.29 1.97 0 2 8.76.2 17.41-2.03 25.93-3.78 8.59-1.77 17.05-3.63 25.17-7.03 1.17-.49.66-2.43-.53-1.93"/><path fill="#fff" stroke="#000" stroke-miterlimit="10" stroke-width=".5" d="M360.63 45.95h32.56v-25.5h-32.56z"/><path fill="#fff" stroke="#000" stroke-miterlimit="10" stroke-width=".5" d="M377.34 24.44h15.85v-3.99h-15.85zM377.34 45.96h15.85v-3.99h-15.85zM382.03 37.35h5.15v2.13h6.01V26.92h-6.01v2.13h-5.15z"/><path fill="#fff" stroke="#000" stroke-miterlimit="10" stroke-width=".5" d="M393.19 35.41v4.07h6.16V26.92h-6.16v4.07h-9.46v4.42z"/><path stroke="#000" stroke-miterlimit="10" stroke-width=".5" d="M393.19 21.88v22.64h4.5v1.43h1.66v-25.5h-1.66v1.43z"/><path fill="url(#a)" d="M310.02 29.56H67.79v7h242.23z"/><path fill="url(#b)" d="M328.32 27.91H310.5V38.2h17.82z"/><path fill="url(#c)" d="M310.5 26.4h-17.82v13.32h17.82z"/><defs><linearGradient id="a" x1="188.9" x2="188.9" y1="26.98" y2="40.6" gradientUnits="userSpaceOnUse"><stop stop-color="#231815"/><stop offset=".34" stop-color="#595757"/><stop offset=".67"/><stop offset="1" stop-color="#595757"/></linearGradient><linearGradient id="b" x1="319.41" x2="319.41" y1="27.21" y2="39.28" gradientUnits="userSpaceOnUse"><stop stop-color="#231815"/><stop offset=".34" stop-color="#595757"/><stop offset=".67"/><stop offset="1" stop-color="#595757"/></linearGradient><linearGradient id="c" x1="301.59" x2="301.59" y1="40.93" y2="24.9" gradientUnits="userSpaceOnUse"><stop stop-color="#231815"/><stop offset=".34" stop-color="#595757"/><stop offset=".67"/><stop offset="1" stop-color="#595757"/></linearGradient></defs></svg>
